!!!OTL: ACH GOTT WIE WEH THUT SCHEIDEN
!!!ARE: Europa, Mitteleuropa, Deutschland
!!!SCT: E0746
!!!YEM: Copyright 1995, estate of Helmut Schaffrath.
**kern
*ICvox
*Ivox
*M4/4
*k[]
*C:
=1
{2e
4g
4g
=2
4a
4b
2cc
=3
2cc}
{2ee
=4
2dd
4b
4cc
=5
8cc
8b
8a
8g
4a
4a
=6
2g
4r}
{4g
=7
2cc
4cc
4b
=8
4b
8a
8g
2a
=9
1e}
=10
{2cc
4b
[4a
=11
8a]
8e
4g
2f
=12
1e
=13
4r}
{4e
4e
4e
=14
2g
4f
4e
=15
4e
8d
8c
4d
4d
=16
1c
=17
4r}
{4c
2g
=18
4a
4.b
8cc
8dd
8b
=19
2cc
2g}
=20
{2cc
4b
[4a
=21
8a]
8e
4g
2f
=22
1e}
==
!!!AGN: Abschieds - Lied, Liebe
!!!ONB: ESAC (Essen Associative Code) Database: ERK2
!!!AMT: simple quadruple
!!!AIN: vox
!!!EED: Helmut Schaffrath
!!!EEV: 1.0
*-
